icons/card-account-phone.svg

<svg xmlns="http://www.w3.org/2000/svg" viewBox="0 0 24 24"><path d="M22,3H2A2,2 0 0,0 0,5V19A2,2 0 0,0 2,21H22A2,2 0 0,0 24,19V5A2,2 0 0,0 22,3M8,6A3,3 0 0,1 11,9A3,3 0 0,1 8,12A3,3 0 0,1 5,9A3,3 0 0,1 8,6M14,18H2V17C2,15 6,13.9 8,13.9C10,13.9 14,15 14,17V18M17.85,14H19.5L21,16L19,18C17.7,17 16.73,15.61 16.28,14C16.1,13.36 16,12.69 16,12C16,11.31 16.1,10.64 16.28,10C16.73,8.38 17.7,7 19,6L21,8L19.5,10H17.85C17.63,10.63 17.5,11.3 17.5,12C17.5,12.7 17.63,13.37 17.85,14Z" /></svg>

<?xml version="1.0" encoding="utf-8"?>
<!-- Generator: Adobe Illustrator 25.0.0, SVG Export Plug-In . SVG Version: 6.00 Build 0)  -->
<svg version="1.1" id="Layer_1" xmlns="http://www.w3.org/2000/svg" xmlns:xlink="http://www.w3.org/1999/xlink" x="0px" y="0px"
	 viewBox="0 0 24 24" style="enable-background:new 0 0 24 24;" xml:space="preserve">
<style type="text/css">
	.st0{fill:#FFFFFF;}
</style>
<path class="st0" d="M22,3H2C0.9,3,0,3.9,0,5v14c0,1.1,0.9,2,2,2h20c1.1,0,2-0.9,2-2V5C24,3.9,23.1,3,22,3 M8,6c1.7,0,3,1.3,3,3
	s-1.3,3-3,3s-3-1.3-3-3S6.3,6,8,6 M14,18H2v-1c0-2,4-3.1,6-3.1s6,1.1,6,3.1V18 M17.9,14h1.6l1.5,2l-2,2c-1.3-1-2.3-2.4-2.7-4
	c-0.2-0.6-0.3-1.3-0.3-2s0.1-1.4,0.3-2c0.4-1.6,1.4-3,2.7-4l2,2l-1.5,2h-1.6c-0.2,0.6-0.4,1.3-0.4,2S17.6,13.4,17.9,14z"/>
</svg>
